react-and-redux/readable/frontend/public/img/udacity-logo.svg

<svg width="48" height="48" xmlns="http://www.w3.org/2000/svg">
    <path fill="#000"
          d="M15.96 0L0 9.24v21.12C0 40.08 7.8 48 17.52 48c3.24 0 6.24-.84 8.88-2.28l12.96-7.44C44.52 35.52 48 30.24 48 24V1.92L44.88.12 31.2 7.44v23.04c0 .96-.12 1.92-.24 2.88-.24.96-.48 1.8-.84 2.64l-.36.72c-.48 0-3.48-1.08-5.04-2.16-.72-.48-1.32-.96-1.92-1.56-.6-.6-1.08-1.2-1.56-1.92s-.84-1.44-1.2-2.16c-.36-.72-.6-1.56-.72-2.4-.12-.84-.12-1.68-.12-2.52V1.92L15.96 0zm7.8 43.44c-.84.36-2.04.84-3 1.08-.96.24-1.8.24-2.76.24-.96 0-1.92-.12-2.88-.36s-1.8-.48-2.64-.84c-.84-.36-1.68-.84-2.4-1.32C7.92 40.92 6.84 39.72 6 38.4c-.48-.72-.96-1.56-1.32-2.4-.36-.84-.6-1.8-.84-2.76-.24-.96-.24-1.92-.24-2.88V11.04l12-7.32V24c0 7.68 5.64 14.16 12.84 15.72-.24.36-.48.72-.84.96-1.32 1.32-2.4 2.16-3.84 2.76zm20.4-16.8c-.12.84-.48 1.68-.72 2.4-.36.72-.72 1.44-1.2 2.16-.48.72-1.92 2.52-3.84 3.6s-3.72 1.44-4.8 1.68c.72-1.92 1.2-3.84 1.2-6V9.24l9.6-5.52V24c0 .96 0 1.8-.24 2.64z"/>
</svg>

<svg width="48px" height="48px" viewBox="0 0 48 48" version="1.1" xmlns="http://www.w3.org/2000/svg" xmlns:xlink="http://www.w3.org/1999/xlink">
    <g id="Page-1" stroke="none" stroke-width="1" fill="none" fill-rule="evenodd">
        <g id="udacity-logo" fill-rule="nonzero" fill="#000000">
            <g id="Group">
                <path d="M15.96,0 L0,9.24 L0,30.36 C0,40.08 7.8,48 17.52,48 C20.76,48 23.76,47.16 26.4,45.72 L39.36,38.28 C44.52,35.52 48,30.24 48,24 L48,1.92 L44.88,0.12 L31.2,7.44 L31.2,30.48 C31.2,31.44 31.08,32.4 30.96,33.36 C30.72,34.32 30.48,35.16 30.12,36 L29.76,36.72 C29.28,36.72 26.28,35.64 24.72,34.56 C24,34.08 23.4,33.6 22.8,33 C22.2,32.4 21.72,31.8 21.24,31.08 C20.76,30.36 20.4,29.64 20.04,28.92 C19.68,28.2 19.44,27.36 19.32,26.52 C19.2,25.68 19.2,24.84 19.2,24 L19.2,1.92 L15.96,0 Z M23.76,43.44 C22.92,43.8 21.72,44.28 20.76,44.52 C19.8,44.76 18.96,44.76 18,44.76 C17.04,44.76 16.08,44.64 15.12,44.4 C14.16,44.16 13.32,43.92 12.48,43.56 C11.64,43.2 10.8,42.72 10.08,42.24 C7.92,40.92 6.84,39.72 6,38.4 C5.52,37.68 5.04,36.84 4.68,36 C4.32,35.16 4.08,34.2 3.84,33.24 C3.6,32.28 3.6,31.32 3.6,30.36 L3.6,11.04 L15.6,3.72 L15.6,24 C15.6,31.68 21.24,38.16 28.44,39.72 C28.2,40.08 27.96,40.44 27.6,40.68 C26.28,42 25.2,42.84 23.76,43.44 L23.76,43.44 Z M44.16,26.64 C44.04,27.48 43.68,28.32 43.44,29.04 C43.08,29.76 42.72,30.48 42.24,31.2 C41.76,31.92 40.32,33.72 38.4,34.8 C36.48,35.88 34.68,36.24 33.6,36.48 C34.32,34.56 34.8,32.64 34.8,30.48 L34.8,9.24 L44.4,3.72 L44.4,24 C44.4,24.96 44.4,25.8 44.16,26.64 L44.16,26.64 Z" id="Shape"></path>
            </g>
        </g>
    </g>
</svg>
